X:1
T:White Christmas
T:White Christmas
T:For Barbershop Quartet
T:Irving Berlin
T:Arr. Sergio Barretto
C:Irving Berlin
Z:Arr. Sergio Barretto
%%score [ ( 1 2 ) ( 3 4 ) ]
L:1/8
Q:1/4=122
M:4/4
K:Bb
V:1 treble-8 nm="TENOR\nLEAD"
V:2 treble-8 
V:3 bass nm="BARI\nBASS"
V:4 bass 
V:1
"^Swing" z4 | z2 .f2 .f2 z2 | .f2 =e f2 z z2 | z2 .f2 .f2 z2 | .f2 =e f2 z z2 | z2 .f2 .f2 z2 | %6
w: ||||||
 .f2 =e f2 z z2 | z2 .g2 .g2 z2 | .g2 g a2 ^f- f2 | g6 z2 | [fa]6 z2 | z2 .f2 .f2 z2 | %12
w: ||* * * woah- *|oh|oh|do- do|
 .f2 =e f2 z z2 | f8- | f6 z2 | e8- | e6 z2 | z2 .f2 .f2 z g- | gf-f z e2 de | z2 .e2 .e2 z2 | %20
w: |ah|_|ah|_||||
 .e2 e f3 f z | b2 a2 g2 f2 | g d4 _d=de- | e4 z2 z c'- | c' f4 z z2 | z g- g2 a2 b2 | %26
w: * * * wah|I yi- yi yi'm|drea- ming of a white|* Christ-|* mas|with * e- very|
 c'2 b2 a2 gf | z2 .f2 .f2 z2 | .f2 =e f2 z z2 | f8- | f4 z4 | e8- | e6 z2 | f6 _f2 | e2 e e3 e2 | %35
w: Christ- mas card I write|||||||||
 d2 .f2 .f2 z2 | .f2 =e f2 z z2 | z2 .d2 .d2 z2 | .d2 ^c d2 z z2 | z2 .e2 .e2 z2 | e2 e f2 z z2 | %41
w: ||||||
 z4 g4 | z4 e4 | z2 .f2 .f2 z2 | .f2 =e f2 z z2 | d8- | d6 z2 | d2 c2 B c2 d- | d B4 z z2 | %49
w: doo||||||oo _ _ _ _|_ _|
 z2 .f2 .f2 z2 | f6 z2 | d6 z .c- | c z z2 z2 z2 | z2 .f2 .f2 z2 | .f2 =e f2 z z2 | z2 .g2 .g2 z2 | %56
w: |||||||
 e2 e e2 =e3 | e4 z =e3 | e2 z2 z4 | z2 .f2 .f2 z2 | .f2 =e f2 ddd- | dBB B2 FFF- | F3 D FD B,2 | %63
w: * * * woah-|oh *|||* * * may your days|_ may your days may your days|_ be me- rry and|
 B8 | !fermata!c8 |[Q:1/4=80]"^Straight NOT SWUNG\n" z8 | z2 z d- d4 | e2 d c3 !fermata!e2 | %68
w: bright|_||doo *||
 d4 e4 | z2 z !fermata!g4 z |] %70
w: |doo|
V:2
 x4 | x2 .d2 .d2 x2 | .d2 ^c d2 x3 | x2 .d2 .d2 x2 | .d2 ^c d2 x3 | x2 .d2 .d2 x2 | .d2 ^c d2 x3 | %7
w: |doo doo||||||
 x2 .e2 .e2 x2 | .=e2 _e f2 d- d2 | e6 x2 | z8 | x2 .d2 .d2 x2 | .d2 ^c d2 B=cd- | d4 d3 d- | %14
w: |||||* * * where the tree-|* tops glis-|
 d g2 z2 f2 z | B4 B3 B- | B f2- f z2 ed- | d x z2 z2 z e- | ed- d2 c2 Bc | x2 .c2 .c2 x2 | %20
w: * ten and|chil- dren lis-|* ten * to hear|_ sleigh|_ bells _ in the snow||
 .c2 c d3 c z | B z .B2 .B2 z2 | .B2 A B2 z z2 | z2 .c2 .c2 z2 | .c2 c c3 x2 | z2 .B2 .B2 z2 | %26
w: |doh doo *|||||
 .c2 c c2 z z2 | x2 .d2 .d2 x2 | .d2 ^c d2 x3 | B8 | _A4 z4 | G6 z B- | B6 z2 | B6 A2 | %34
w: |||||||all your|
 B2 c c3 A2 | A2 .B2 .B2 z2 | .d2 ^c4 z2 | B2 A2 G2 F2 | G D3 z ^CDE- | E6- Ec- | c F4 z z2 | %41
w: Christ- mas- ses be|white * *||I- yi- yi yi'm|drea- ming of a white|* * Christ-|mas *|
 z G- G2 A2 B2 | c2 B2 A2 GF- | F2 .B2 .B2 z2 | .B2 A B2 z z2 | B4 A3 _A- | A6 z2 | G6 z _G- | %48
w: just * like the|ones I used to know|||oo _ _|_||
 G6 z2 | z2 .d2 .d2 z2 | d6 z2 | B6 z .A- | A z z2 z4 | x2 .B2 .B2 z2 | B2 A B2 z z2 | %55
w: |||||||
 z2 .e2 .e2 z2 | B2 B A2 =B3 | B4 z G3 | A2 z2 z4 | x2 .B2 .B2 z2 | B2 A B2 x3 | F8- | F6 z2 | G8 | %64
w: ||* woah-|oh|||ah|_||
 !fermata!B8 | x8 | x2 B6 | B2 B !fermata!A4 z | B4 B4 | x2 !fermata!c6 |] %70
w: ||doo|Christ mas- ses|white _|doo|
V:3
 z z z2 | z2 .B,2 .B,2 z2 | .B,2 A, B,2 z z2 | z2 .B,2 .B,2 z2 | .B,2 A, B,2 z z2 | %5
w: |doo doo||||
 z2 .B,2 .B,2 z2 | .B,2 A, B,2 z z2 | z2 .B,2 .B,2 z2 | B,2 =B, C2 A,- A,2 | B,6 z2 | E6 z2 | %11
w: |||* * * woah- *|oh|oh|
 z2 .B,2 .B,2 z2 | .B,2 A, B,2 z z2 | (B,4 A,4 | _A,6) z2 | G,4 G,3 _G,- | G,6 z2 | z2 .D2 .D2 z2 | %18
w: do- do||ah _|_|ah _ _|_||
 D2 ^C D2 z2 z | z2 .G,2 .G,2 z2 | .G,2 G, A,3 A, z | F, z .F,2 .F,2 z2 | .F,2 =E, F,2 z z2 | %23
w: ||* * * wah|* doo *||
 z2 .G,2 .G,2 z2 | .G,2 G, A,3 z2 | z2 .G,2 .G,2 z2 | .A,2 A, A,2 z z2 | z2 .B,2 .B,2 z2 | %28
w: |||||
 .B,2 A, B,2 DDD- | DB,B, B,2 F,F,F,- | F,2 z D, F,D, B,,2 | B,4 A, G,2 _G,- | G,4 B,,2 C,2 | %33
w: * * * may your days|_ may your days may your days|_ be mer- ry and|bright _ _ _|_ and may|
 D,6 D,2 | G,2 F, F,3 F,2 | F,2 .B,2 .B,2 z2 | .B,2 A, B,2 z z2 | B,,2 .B,2 .B,2 z2 | %38
w: all your|Christ- mas- ses be|white * *|||
 .B,2 A, B,2 z z2 | z2 .B,2 .B,2 z2 | .B,2 B, C2 z z2 | z2 E,6 | z2 F,6 | z2 .F,2 .F,2 z2 | %44
w: |||doo|||
 .F,2 =E, F,2 z z z | F,8- | F,6 z2 | E,8- | E,6 z2 | z2 .B,2 .B,2 z2 | G,6 z2 | G,6 z .F,- | %52
w: |oo|_||||||
 F, z z6 | B,2 A,2 G,2 F,2 | G, D,2 z2 _D,=D,E,- | E,6 z C- | C F,4 z z2 | z2 G,2 A,2 B,2 | %58
w: |I- yi- yi yi'm|drea- ming of a white|* Christ-|mas *|with e- very|
 C2 F2 DCB,B,- | B,2 .B,2 .B,2 z2 | .B,2 A, B,2 z z2 | D,8- | D,6 z2 | E,8 | !fermata!_G,8 | %65
w: Christ- mas card _ I write|||ah|_|bright|_|
 z4 z4 | z F,- F,6 | C2 B, !fermata!C4 !fermata!z | F,4 _G,4 | z !fermata!F,6 z |] %70
w: |doo *|||doo|
V:4
 x F,=E,F, | B,,2 z4 x2 | z4 z F,=E,F, | B,,2 z6 | z4 z F,=E,F, | B,,2 z2 D,2 z E,- | %6
w: doo- doo- doo|doo||||* I'm drea-|
 E,D, z2 z _D,=D,E,- | E,4 z2 z =E,- | E,F, z2 z4 | z G,- G,2 A,2 B,C- | C2 B,2 A,2 G,F,- | %11
w: * ming of a white|* Christ-|* mas|just _ like the ones|_ I used to know|
 F,2 z2 z2 x2 | x2 z4 z2 | B,,8- | B,,6 z2 | E,8- | E,6 x2 | x2 .B,2 .B,2 x2 | B,2 A, B,2 x3 | %19
w: _||||||||
 x2 .C,2 .C,2 x2 | .C,2 C, F,2 z F,2 | B,,2 .D,2 .D,2 z2 | .D,2 ^C, D,2 x3 | x2 .E,2 .E,2 x2 | %24
w: ||doh * *|||
 .E,2 E, F,3 x2 | x2 .E,2 .E,2 x2 | .F,2 F, F,2 x3 | x2 .D,2 .D,2 x2 | D,2 ^C,D, z x3 | D,8- | %30
w: ||||||
 D,6 z2 | E,8- | E,6 z2 | B,,6 =B,,2 | C,2 A,, A,,3 F,,2 | B,,2 .D,2 .D,2 z2 | %36
w: ||||||
 .D,2 ^C, D,2 F,_F,=F, | x2 .F,2 .F,2 x2 | .F,2 =E, F,2 z z2 | x2 .G,2 .G,2 z2 | .G,2 G, A,2 z z2 | %41
w: |||||
 B,,8 | C,8 | x2 .D,2 .D,2 z2 | .D,2 ^C, D,2 B,,=C,D,- | D,4 D,3 D,- | D, G,3 z F,- F,2 | %47
w: doo|||* * * where the tree-|* tops glis-|* ten and *|
 B,,4 B,,3 B,,- | B,, F,2 z2 E,2 D,- | D,6 z2 | G,,2 A,,2 B,,2 C,2 | D,4 D,C,B,,C,- | %52
w: chil- dren lis-|ten * to hear||sleigh bells in the|snow _ _ _ _|
 C,F, E,2 D,2 C,2 | B,,2 .D,2 .D,2 z2 | D,2 ^C, D,2 z z2 | z2 .B,,2 .B,,2 z2 | C,2 C, F,,2 _D,3 | %57
w: _ doo doo doo doo||||* * * woah-|
 C,4 z =E,3 | F,2 z2 z4 | z2 .D,2 .D,2 z2 | .D,2 _D, =D,2 z z2 | B,,8 | _A,,6 z2 | B,,8 | %64
w: oh woah-|oh||||||
 !fermata!E,8 | x4 B,,2 C,2 | D,6 D,2 | G,2 F, !fermata!A,4 F, | B,,4 E,4 | !fermata!B,,8 |] %70
w: |and may|all your|Christ mas- ses be|white _|doo|

